SERVER/dist/web/static/SVG/report.svg

<svg width="24" height="24" viewBox="0 0 24 24" fill="none" xmlns="http://www.w3.org/2000/svg">
<path d="M19.5 14.25V11.625C19.5 10.7299 19.1444 9.87145 18.5115 9.23851C17.8786 8.60558 17.0201 8.25 16.125 8.25H14.625C14.3266 8.25 14.0405 8.13147 13.8295 7.9205C13.6185 7.70952 13.5 7.42337 13.5 7.125V5.625C13.5 4.72989 13.1444 3.87145 12.5115 3.23851C11.8785 2.60558 11.0201 2.25 10.125 2.25H8.25M8.25 15H15.75M8.25 18H12M10.5 2.25H5.625C5.004 2.25 4.5 2.754 4.5 3.375V20.625C4.5 21.246 5.004 21.75 5.625 21.75H18.375C18.996 21.75 19.5 21.246 19.5 20.625V11.25C19.5 8.86305 18.5518 6.57387 16.864 4.88604C15.1761 3.19821 12.8869 2.25 10.5 2.25Z" stroke="white" stroke-width="1.5" stroke-linecap="round" stroke-linejoin="round"/>
</svg>

<svg xmlns="http://www.w3.org/2000/svg" fill="none" viewBox="0 0 24 24" stroke-width="1.5"
  stroke="currentColor" class="w-6 h-6">
  <path stroke-linecap="round" stroke-linejoin="round"
    d="M19.5 14.25v-2.625a3.375 3.375 0 00-3.375-3.375h-1.5A1.125 1.125 0 0113.5 7.125v-1.5a3.375 3.375 0 00-3.375-3.375H8.25m0 12.75h7.5m-7.5 3H12M10.5 2.25H5.625c-.621 0-1.125.504-1.125 1.125v17.25c0 .621.504 1.125 1.125 1.125h12.75c.621 0 1.125-.504 1.125-1.125V11.25a9 9 0 00-9-9z" />
</svg>
